Newaita-dark/actions/22/tools-rip-video-dvd.svg

<?xml version="1.0" encoding="UTF-8"?>
<svg xmlns="http://www.w3.org/2000/svg" xmlns:xlink="http://www.w3.org/1999/xlink" width="22pt" height="22pt" viewBox="0 0 22 22" version="1.1">
<g id="surface1">
<path style=" stroke:none;fill-rule:nonzero;fill:rgb(74.117649%,74.117649%,74.117649%);fill-opacity:1;" d="M 10.914062 1.082031 C 5.371094 1.082031 0.910156 5.542969 0.910156 11.085938 L 2.273438 11.085938 C 2.273438 6.300781 6.128906 2.445312 10.914062 2.445312 C 15.703125 2.445312 19.554688 6.300781 19.554688 11.085938 C 19.554688 15.875 15.703125 19.726562 10.914062 19.726562 L 10.914062 21.09375 C 16.457031 21.09375 20.921875 16.628906 20.921875 11.085938 C 20.921875 5.542969 16.457031 1.082031 10.914062 1.082031 Z M 10.914062 1.082031 "/>
<path style=" stroke:none;fill-rule:nonzero;fill:rgb(47.058824%,56.470591%,61.176473%);fill-opacity:1;" d="M 10.914062 7.449219 C 8.898438 7.449219 7.277344 9.070312 7.277344 11.085938 C 7.277344 13.101562 8.898438 14.726562 10.914062 14.726562 C 12.929688 14.726562 14.554688 13.101562 14.554688 11.085938 C 14.554688 9.070312 12.929688 7.449219 10.914062 7.449219 Z M 10.914062 9.269531 C 11.921875 9.269531 12.734375 10.078125 12.734375 11.085938 C 12.734375 12.09375 11.921875 12.90625 10.914062 12.90625 C 9.90625 12.90625 9.097656 12.09375 9.097656 11.085938 C 9.097656 10.078125 9.90625 9.269531 10.914062 9.269531 Z M 10.914062 9.269531 "/>
<path style=" stroke:none;fill-rule:nonzero;fill:rgb(14.901961%,77.64706%,85.490197%);fill-opacity:1;" d="M 10.914062 2.902344 L 10.914062 7.449219 C 12.929688 7.449219 14.554688 9.070312 14.554688 11.085938 L 19.101562 11.085938 C 19.101562 6.550781 15.449219 2.902344 10.914062 2.902344 Z M 10.914062 2.902344 "/>
<path style=" stroke:none;fill-rule:evenodd;fill:rgb(14.901961%,77.64706%,85.490197%);fill-opacity:1;" d="M 3.183594 13.363281 C 2.933594 13.363281 2.730469 13.566406 2.730469 13.816406 L 2.730469 19.273438 C 2.730469 19.617188 3.097656 19.835938 3.402344 19.671875 L 8.402344 16.945312 C 8.71875 16.769531 8.71875 16.316406 8.402344 16.144531 L 3.402344 13.417969 C 3.335938 13.378906 3.257812 13.359375 3.183594 13.363281 Z M 3.183594 13.363281 "/>
</g>
</svg>

<svg xmlns="http://www.w3.org/2000/svg" width="22pt" height="22pt" viewBox="0 0 22 22"><path d="M10.914 1.082A9.981 9.981 0 0 0 .91 11.086h1.363a8.624 8.624 0 0 1 8.641-8.64c4.79 0 8.64 3.855 8.64 8.64 0 4.789-3.85 8.64-8.64 8.64v1.368a9.988 9.988 0 0 0 10.008-10.008A9.984 9.984 0 0 0 10.914 1.082zm0 0" fill="#bdbdbd"/><path d="M10.914 7.45a3.628 3.628 0 0 0-3.637 3.636 3.631 3.631 0 0 0 3.637 3.64 3.634 3.634 0 0 0 3.64-3.64 3.631 3.631 0 0 0-3.64-3.637zm0 1.82c1.008 0 1.82.808 1.82 1.816s-.812 1.82-1.82 1.82a1.814 1.814 0 0 1-1.816-1.82 1.81 1.81 0 0 1 1.816-1.816zm0 0" fill="#78909c"/><path d="M10.914 2.902V7.45a3.631 3.631 0 0 1 3.64 3.637h4.548a8.167 8.167 0 0 0-8.188-8.184zm0 0" fill="#26c6da"/><path d="M3.184 13.363a.453.453 0 0 0-.454.453v5.457c0 .344.368.563.672.399l5-2.727a.456.456 0 0 0 0-.8l-5-2.727a.397.397 0 0 0-.218-.055zm0 0" fill-rule="evenodd" fill="#26c6da"/></svg>
